X: 20071
T: DRINK TO ME ONLY
Q: "Alleg.o"
%R: jig, waltz
B: "Edinburgh Repository of Music" v.2 p.7 #1
F: http://digital.nls.uk/special-collections-of-printed-music/pageturner.cfm?id=87776133
Z: 2015 John Chambers <jc:trillian.mit.edu>
M: 6/8
L: 1/8
K: A
[|\
ccc d2d | (edc) (Bcd) | (eAd) c2B | A3- A3 |\
ccc d2d | (edc) (Bcd) | (eAd) c2B | A3- A2 |]
|: e |\
(ece) a2e | (ece) e2e | f2e d2c | (c3 B2)z |\
ccc d2d | (edc) (Bcd) | (eAd) c2B | A3- A2 :|
